img/tg-red.svg

<svg width="34" height="34" viewBox="0 0 34 34" fill="none" xmlns="http://www.w3.org/2000/svg">
<g id="Group">
<path id="Vector" d="M15.5848 0.745117C16.253 0.745117 16.9221 0.745117 17.5903 0.745117C17.6733 0.763045 17.7554 0.791216 17.8392 0.797192C20.3279 0.982443 22.6661 1.66881 24.8099 2.928C29.2149 5.51553 31.9162 9.29994 32.8654 14.2846C32.9786 14.8779 33.0365 15.4824 33.1195 16.0816C33.1195 16.7416 33.1195 17.4023 33.1195 18.0622C33.1013 18.1647 33.0806 18.2671 33.0642 18.3695C32.931 19.2096 32.8558 20.0624 32.6588 20.8871C30.311 30.6908 19.5776 36.0862 10.1822 32.1985C3.01191 29.2319 -1.06294 21.8791 0.24492 14.2667C1.37385 7.69671 6.65542 2.34578 13.2864 1.07208C14.0453 0.926953 14.819 0.852682 15.5848 0.745117ZM17.1719 21.6136C17.5635 21.8756 17.9291 22.1189 18.2939 22.3639C19.5335 23.1946 20.7696 24.0303 22.0144 24.8525C22.6955 25.3023 23.4951 25.0138 23.668 24.2591C24.7407 19.5929 25.8091 14.9258 26.8767 10.2586C26.9908 9.76008 26.7142 9.28372 26.2076 9.19408C25.9474 9.14798 25.644 9.18298 25.3933 9.27177C19.1825 11.4709 12.9769 13.6819 6.77039 15.8913C6.37881 16.0304 6.19901 16.2396 6.20766 16.5401C6.2163 16.8534 6.41857 17.054 6.83522 17.1658C8.27879 17.5543 9.71978 17.9495 11.1668 18.326C11.427 18.3934 11.5532 18.5206 11.637 18.7699C12.1669 20.3433 12.7132 21.9115 13.2552 23.4806C13.4238 23.9672 13.7419 24.2182 14.1827 24.1396C14.3997 24.1012 14.6271 23.9732 14.7922 23.8238C15.5883 23.105 16.3645 22.3665 17.1719 21.6136Z" fill="#C8102E"/>
<path id="Vector_2" d="M13.7886 22.5556C13.748 22.4669 13.6996 22.3806 13.6685 22.2884C13.2449 21.0395 12.8231 19.7905 12.403 18.5407C12.2673 18.1378 12.3139 18.0157 12.677 17.81C16.0387 15.9071 19.4004 14.0051 22.763 12.1031C22.8373 12.0612 22.9151 11.9998 22.9929 11.9972C23.0768 11.9946 23.1986 12.0279 23.2367 12.0877C23.2713 12.1415 23.2349 12.2627 23.1935 12.3336C23.1537 12.4027 23.0681 12.4471 23.0016 12.5009C20.2164 14.7504 17.433 17.0015 14.6418 19.2433C14.3807 19.4533 14.2398 19.6744 14.2113 20.0142C14.1491 20.7552 14.0428 21.4936 13.952 22.2321C13.939 22.3345 13.9105 22.4344 13.8898 22.536C13.8552 22.5428 13.8215 22.5497 13.7886 22.5556Z" fill="#C8102E"/>
</g>
</svg>

<svg width="34" height="34" fill="none" xmlns="http://www.w3.org/2000/svg"><g fill="#C8102E"><path d="M15.585.745h2.005c.083.018.165.046.25.052 2.488.185 4.826.872 6.97 2.131 4.405 2.588 7.106 6.372 8.055 11.357.114.593.171 1.197.255 1.797v1.98c-.019.103-.04.205-.056.307-.133.84-.208 1.693-.405 2.518-2.348 9.804-13.081 15.2-22.477 11.312-7.17-2.967-11.245-10.32-9.937-17.932 1.129-6.57 6.41-11.921 13.041-13.195.76-.145 1.533-.22 2.299-.327zm1.587 20.869l1.122.75c1.24.83 2.476 1.666 3.72 2.488.681.45 1.481.162 1.654-.593 1.073-4.666 2.141-9.333 3.209-14 .114-.499-.163-.975-.67-1.065a1.675 1.675 0 00-.814.078c-6.21 2.199-12.416 4.41-18.623 6.62-.391.138-.571.348-.562.648.008.313.21.514.627.626 1.444.388 2.885.784 4.332 1.16.26.067.386.195.47.444.53 1.573 1.076 3.142 1.618 4.71.169.487.487.738.928.66.217-.039.444-.167.61-.316.795-.719 1.572-1.458 2.379-2.21z"/><path d="M13.789 22.556c-.041-.09-.09-.175-.12-.268-.424-1.248-.846-2.497-1.266-3.747-.136-.403-.09-.525.274-.731l10.086-5.707c.074-.042.152-.103.23-.106.084-.002.206.03.244.09.034.055-.002.176-.043.247-.04.069-.126.113-.192.167-2.786 2.25-5.569 4.5-8.36 6.742-.261.21-.402.431-.43.771-.063.741-.17 1.48-.26 2.218-.013.102-.041.202-.062.304l-.101.02z"/></g></svg>
